icon-svg/openmediavault.svg

<svg xmlns="http://www.w3.org/2000/svg" fill="#44739e" viewBox="0 0 24 24"><path d="M7.491 16.732a.913.913 0 0 0 .913-.913.913.913 0 1 0-.913.913m0-1.389a.476.476 0 0 1 .477.476.477.477 0 1 1-.477-.476m0-6.249a.913.913 0 0 0 .909-.913.913.913 0 1 0-.913.913Zm0-1.39a.478.478 0 0 1 .477.477.477.477 0 1 1-.477-.481Zm0 5.209A.913.913 0 0 0 8.4 12a.913.913 0 1 0-.913.913zm0-1.39a.478.478 0 0 1 .477.477.477.477 0 1 1-.477-.477M4.31 18.955h15.38V5.045H4.31ZM5.792 6.88a.244.244 0 0 1 .253-.235h11.91a.244.244 0 0 1 .253.235v2.6a.245.245 0 0 1-.253.234H6.045a.244.244 0 0 1-.253-.234Zm0 3.819a.243.243 0 0 1 .253-.234h11.91a.243.243 0 0 1 .253.234v2.6a.245.245 0 0 1-.253.234H6.045a.244.244 0 0 1-.253-.234Zm0 3.819a.244.244 0 0 1 .253-.234h11.91a.244.244 0 0 1 .253.234v2.6a.245.245 0 0 1-.253.234H6.045a.243.243 0 0 1-.253-.234ZM2 2v20h20V2Zm18.438 17.039a.665.665 0 0 1-.665.664H4.227a.665.665 0 0 1-.665-.664V4.961a.665.665 0 0 1 .665-.661h15.546a.665.665 0 0 1 .665.664z"/></svg>

<?xml version="1.0" encoding="UTF-8"?>
<svg width="24px" fill="#44739e" height="24px" viewBox="0 0 24 24" version="1.1" xmlns="http://www.w3.org/2000/svg" xmlns:xlink="http://www.w3.org/1999/xlink">
            <path d="m 7.491,16.732 v 0 a 0.913,0.913 0 0 0 0.913,-0.913 v 0 a 0.913,0.913 0 1 0 -0.913,0.913 z m 0,-1.389 a 0.476,0.476 0 0 1 0.477,0.476 v 0 A 0.477,0.477 0 1 1 7.491,15.343 Z m 0,-6.249 v 0 A 0.913,0.913 0 0 0 8.4,8.181 v 0 A 0.913,0.913 0 1 0 7.487,9.094 Z m 0,-1.39 a 0.478,0.478 0 0 1 0.477,0.477 v 0 A 0.477,0.477 0 1 1 7.491,7.7 Z m 0,5.209 v 0 A 0.913,0.913 0 0 0 8.4,12 v 0 a 0.913,0.913 0 1 0 -0.913,0.913 z m 0,-1.39 A 0.478,0.478 0 0 1 7.968,12 v 0 A 0.477,0.477 0 1 1 7.491,11.523 Z M 4.31,18.955 H 19.69 V 5.045 H 4.31 Z M 5.792,6.88 A 0.244,0.244 0 0 1 6.045,6.645 h 11.91 a 0.244,0.244 0 0 1 0.253,0.235 v 2.6 A 0.245,0.245 0 0 1 17.955,9.714 H 6.045 A 0.244,0.244 0 0 1 5.792,9.48 Z m 0,3.819 a 0.243,0.243 0 0 1 0.253,-0.234 h 11.91 a 0.243,0.243 0 0 1 0.253,0.234 v 2.6 a 0.245,0.245 0 0 1 -0.253,0.234 H 6.045 A 0.244,0.244 0 0 1 5.792,13.299 Z m 0,3.819 a 0.244,0.244 0 0 1 0.253,-0.234 h 11.91 a 0.244,0.244 0 0 1 0.253,0.234 v 2.6 a 0.245,0.245 0 0 1 -0.253,0.234 H 6.045 A 0.243,0.243 0 0 1 5.792,17.118 Z M 2,2 V 22 H 22 V 2 Z m 18.438,17.039 a 0.665,0.665 0 0 1 -0.665,0.664 H 4.227 A 0.665,0.665 0 0 1 3.562,19.039 V 4.961 A 0.665,0.665 0 0 1 4.227,4.3 h 15.546 a 0.665,0.665 0 0 1 0.665,0.664 z"/>

</svg>
